Flat-Remix-Blue/mimetypes/scalable/text-x-c.svg

<svg xmlns="http://www.w3.org/2000/svg" xmlns:xlink="http://www.w3.org/1999/xlink" width="36pt" height="36pt" version="1.1" viewBox="0 0 36 36"> <defs> <clipPath id="clip1"> <path d="M 20 2 L 31 2 L 31 13 L 20 13 Z M 20 2"/> </clipPath> <clipPath id="clip2"> <path d="M 20.515625 2.625 L 30.328125 12.4375 L 22.023438 12.4375 C 21.292969 12.4375 20.515625 11.660156 20.515625 10.929688 Z M 20.515625 2.625"/> </clipPath> <image id="image6" width="36" height="36" xlink:href="data:image/png;base64,iVBORw0KGgoAAAANSUhEUgAAACQAAAAkCAYAAADhAJiYAAAABmJLR0QA/wD/AP+gvaeTAAAAmklEQVRYhe3T0QqCQBBG4aOtYEoUvf9Lildltl00C4tkbBeTIP+BAUEYP1YW1Pcqh53B9kbgaVPcwQF0tAmGSrMZ6AKcDQXw+AUVHEAtcAUaewYYgYmC3+cBCkAPnDJQMcoDVNnebgEqQnmAclTz4d0I3P4JStc9AjXvk4qLWQV53LLeEOl05gw4A3dgcPiuUkoppZRSSqk99gLWvSJpuDnlsAAAAABJRU5ErkJggg=="/> </defs> <g> <path style="fill:rgb(0%,0%,0%)" d="M 7.347656 3.152344 C 6.675781 3.152344 6.042969 3.785156 6.042969 4.457031 L 6.042969 31.847656 C 6.042969 32.480469 6.714844 33.152344 7.347656 33.152344 L 28.21875 33.152344 C 28.851562 33.152344 29.523438 32.480469 29.523438 31.847656 L 29.523438 11.632812 L 21.042969 3.152344 Z M 7.347656 3.152344"/> <g clip-path="url(#clip1)"> <g clip-path="url(#clip2)"> <use xlink:href="#image6"/> </g> </g> <path style="fill:rgb(20.000%,20.000%,20.000%)" d="M 21.042969 3.152344 L 29.523438 11.632812 L 22.347656 11.632812 C 21.714844 11.632812 21.042969 10.960938 21.042969 10.328125 Z M 21.042969 3.152344"/> <path style="fill:rgb(100.000%,100.000%,100.000%)" d="M 12.78125 20.523438 C 12.78125 19.894531 12.914062 19.277344 13.171875 18.667969 C 13.429688 18.046875 13.800781 17.496094 14.285156 17.015625 C 14.78125 16.53125 15.382812 16.140625 16.09375 15.839844 C 16.800781 15.542969 17.613281 15.390625 18.523438 15.390625 C 19.59375 15.390625 20.515625 15.597656 21.292969 16.015625 C 22.082031 16.429688 22.660156 16.972656 23.03125 17.636719 L 21.242188 18.695312 C 21.105469 18.40625 20.929688 18.164062 20.71875 17.972656 C 20.503906 17.769531 20.269531 17.609375 20.007812 17.492188 C 19.761719 17.375 19.503906 17.292969 19.230469 17.246094 C 18.960938 17.1875 18.703125 17.160156 18.457031 17.160156 C 17.902344 17.160156 17.417969 17.261719 17.003906 17.464844 C 16.585938 17.667969 16.238281 17.933594 15.957031 18.261719 C 15.6875 18.578125 15.476562 18.945312 15.332031 19.363281 C 15.195312 19.769531 15.128906 20.175781 15.128906 20.578125 C 15.128906 21.035156 15.207031 21.472656 15.367188 21.898438 C 15.535156 22.3125 15.765625 22.679688 16.058594 23 C 16.363281 23.320312 16.722656 23.574219 17.136719 23.769531 C 17.554688 23.960938 18.011719 24.058594 18.503906 24.058594 C 18.765625 24.058594 19.027344 24.027344 19.300781 23.972656 C 19.570312 23.914062 19.828125 23.820312 20.074219 23.695312 C 20.335938 23.570312 20.570312 23.410156 20.785156 23.21875 C 21 23.015625 21.171875 22.773438 21.308594 22.492188 L 23.214844 23.433594 C 23.035156 23.820312 22.773438 24.164062 22.421875 24.464844 C 22.085938 24.753906 21.695312 25 21.257812 25.203125 C 20.820312 25.40625 20.359375 25.5625 19.875 25.667969 C 19.390625 25.773438 18.910156 25.828125 18.4375 25.828125 C 17.605469 25.828125 16.839844 25.671875 16.140625 25.363281 C 15.457031 25.054688 14.859375 24.652344 14.351562 24.160156 C 13.855469 23.65625 13.46875 23.09375 13.1875 22.464844 C 12.917969 21.828125 12.78125 21.179688 12.78125 20.523438"/> </g> </svg>

<svg width="36pt" height="36pt" version="1.1" viewBox="0 0 36 36" xmlns="http://www.w3.org/2000/svg"><defs><filter id="a" x="-.192" y="-.192" width="1.384" height="1.384" color-interpolation-filters="sRGB"><feGaussianBlur stdDeviation="0.67843748"/></filter></defs><path d="m7.3477 3.1523c-0.67188 0-1.3047 0.63281-1.3047 1.3047v27.391c0 0.63281 0.67188 1.3047 1.3047 1.3047h20.871c0.63281 0 1.3047-0.67188 1.3047-1.3047v-20.215l-8.4805-8.4805z"/><path d="m20.668 3.5272 8.4805 8.4805h-7.1758c-0.63281 0-1.3047-0.67187-1.3047-1.3047z" filter="url(#a)" opacity=".2"/><path d="m21.043 3.1523 8.4805 8.4805h-7.1758c-0.63281 0-1.3047-0.67187-1.3047-1.3047z" fill="#333"/><path d="m12.781 20.523c0-0.62891 0.13281-1.2461 0.39062-1.8555 0.25781-0.62109 0.62891-1.1719 1.1133-1.6523 0.49609-0.48438 1.0977-0.875 1.8086-1.1758 0.70703-0.29688 1.5195-0.44922 2.4297-0.44922 1.0703 0 1.9922 0.20703 2.7695 0.625 0.78906 0.41406 1.3672 0.95703 1.7383 1.6211l-1.7891 1.0586c-0.13672-0.28906-0.3125-0.53125-0.52344-0.72266-0.21484-0.20312-0.44922-0.36328-0.71094-0.48047-0.24609-0.11719-0.50391-0.19922-0.77734-0.24609-0.26953-0.058594-0.52734-0.085938-0.77344-0.085938-0.55469 0-1.0391 0.10156-1.4531 0.30469-0.41797 0.20312-0.76562 0.46875-1.0469 0.79688-0.26953 0.31641-0.48047 0.68359-0.625 1.1016-0.13672 0.40625-0.20312 0.8125-0.20312 1.2148 0 0.45703 0.078125 0.89453 0.23828 1.3203 0.16797 0.41406 0.39844 0.78125 0.69141 1.1016 0.30469 0.32031 0.66406 0.57422 1.0781 0.76953 0.41797 0.19141 0.875 0.28906 1.3672 0.28906 0.26172 0 0.52344-0.03125 0.79688-0.085938 0.26953-0.058594 0.52734-0.15234 0.77344-0.27734 0.26172-0.125 0.49609-0.28516 0.71094-0.47656 0.21484-0.20312 0.38672-0.44531 0.52344-0.72656l1.9062 0.94141c-0.17969 0.38672-0.44141 0.73047-0.79297 1.0312-0.33594 0.28906-0.72656 0.53516-1.1641 0.73828s-0.89844 0.35938-1.3828 0.46484-0.96484 0.16016-1.4375 0.16016c-0.83203 0-1.5977-0.15625-2.2969-0.46484-0.68359-0.30859-1.2812-0.71094-1.7891-1.2031-0.49609-0.50391-0.88281-1.0664-1.1641-1.6953-0.26953-0.63672-0.40625-1.2852-0.40625-1.9414" fill="#fff"/></svg>
